X:29
T:Julia Delaney
S:Bernie Waugh
R:Reel
M:2/4
L:1/16
K:D Dorian
|:A|\
"C"dcAG "Gm"~F2DF|"Am"~E2CE "Bb"~F2DA|\
"C"dcAG "Gm"~FDFG|"Am"Ad~dc "Bb"defe|
"C"dcAG "Gm"~F2DF|"Am"~E2CE "Bb"~F2DA|\
"C"dcAG "Gm"~FDFG|1\
"Am"A~d2c "Bb"d3:|2\
"Am"A~d2c "Bb"d2||
|:de|\
"Dm"~fede fagf|"C"ecgc acgc|"Bb"fede fagf|"Am"eB~cB "Dm"Adde|
"Dm"~fede fagf|"C"ecgc acgc|"Bb"fedf ~edcB|1\
"Dm"A~d2c d2:|2\
"Dm"A~d2c d3|]

